packages/sources/assets/src/assets/illicado.svg

<svg width="58" height="40" viewBox="0 0 58 40" fill="none" xmlns="http://www.w3.org/2000/svg">
<rect x="0.5" y="0.5" width="57" height="39" rx="3.5" fill="white" stroke="#F1F1F1"/>
<path d="M32.7879 20.6816C32.4545 20.5908 32.0909 20.5606 31.7273 20.5908C30.4848 20.6816 29.6667 21.7106 29.8485 22.9211C29.9394 23.7684 30.9394 24.4948 31.8485 24.3737C33.0606 24.2224 33.697 23.5869 33.697 22.4974C33.697 22.1342 33.6667 21.8619 33.6061 21.5592C33.4848 21.1053 33.2424 20.8027 32.7879 20.6816Z" fill="#0D0E12"/>
<path d="M39.0606 20.5606C38.7576 20.5303 38.4546 20.5303 38.1515 20.6211C37.697 20.7724 37.394 21.0448 37.1818 21.4685C37 21.8316 36.9697 22.2251 36.9697 22.6487C36.9697 23.4356 37.4849 24.1014 38.2122 24.2224C39.0606 24.3132 39.8485 23.829 40.0606 23.0422C40.1212 22.8303 40.1212 22.6185 40.1212 22.4066C40.1212 22.0132 40.0909 21.6501 39.9697 21.3172C39.8182 20.8935 39.5152 20.6211 39.0606 20.5606Z" fill="#0D0E12"/>
<path d="M46.2424 20.6211C44.8788 20.1066 43.4849 21.0145 43.4849 22.4974C43.4849 23.5566 44.2727 24.3737 45.303 24.3737C46.5455 24.3737 47.3333 23.6172 47.3333 22.4066C47.303 22.3461 47.303 22.2251 47.303 22.1343C47.2121 21.4685 46.9394 20.8935 46.2424 20.6211Z" fill="#0D0E12"/>
<path d="M53.7273 18.8052C53.3636 16.2934 52.2424 14.1447 50.4243 12.3894C48.2424 10.3315 45.6667 9.24207 42.6667 9.24207C33.4849 9.24207 24.2727 9.24207 15.1212 9.24207C14.6667 9.24207 14.2121 9.30259 13.7879 9.33285C10.7879 9.81707 8.36365 11.2092 6.51516 13.6C4.96971 15.5973 4.18183 17.8671 4.18183 20.3789C4.18183 24.071 4.18183 27.7631 4.18183 31.4552C4.18183 31.7881 4.12122 31.7579 4.48486 31.7579C10.9697 31.7579 17.4243 31.7579 23.8788 31.7579C30.1212 31.7579 36.394 31.7579 42.6061 31.7579C44.4849 31.7579 46.303 31.3039 47.9697 30.4263C51.9697 28.1868 54.4546 23.7684 53.7273 18.8052Z" fill="#0D0E12"/>
<path d="M13.697 25.3118C13.2424 25.3723 12.9697 25.1605 12.8485 24.7368C12.6364 24.0407 12.6061 23.3144 12.5455 22.5881C12.4849 21.9526 12.4849 21.3473 12.4849 20.7118C12.4849 18.9868 12.5455 17.2921 12.8485 15.5973C12.8788 15.446 12.9091 15.2947 12.9697 15.1434C13.1212 14.75 13.4546 14.5986 13.8788 14.7802C14.0909 14.871 14.1515 15.0828 14.1515 15.2644C14.1515 15.6276 14.0606 16.021 14.0303 16.3539C13.7576 18.6539 13.7576 20.9236 14 23.2236C14.0606 23.7381 14.0909 24.2828 14.1515 24.7671C14.1818 25.1302 14.0303 25.2815 13.697 25.3118Z" fill="#EF5CA0"/>
<path d="M10.8182 20.5605C10.8182 22.0132 10.8182 23.4658 10.7576 24.9184C10.7576 24.979 10.7273 25.0698 10.697 25.1303C10.5757 25.3119 10.1515 25.3724 9.87877 25.3119C9.66665 25.2513 9.57574 25.1 9.57574 24.7974C9.57574 24.1619 9.57574 23.5566 9.57574 22.679C9.54544 22.0132 9.51514 21.075 9.51514 20.1369C9.51514 19.8342 9.66665 19.6526 9.96968 19.5619C10.303 19.5013 10.606 19.5921 10.7273 19.8342C10.8182 20.0763 10.8485 20.2882 10.8182 20.5605Z" fill="#A6CF59"/>
<path d="M10 18.3513C9.36363 18.3211 8.93939 17.8974 8.93939 17.3526C8.9697 16.7474 9.45454 16.2026 10 16.2026C10.6061 16.2026 11.0606 16.6868 11.0606 17.2618C11.0303 17.8974 10.6061 18.3513 10 18.3513Z" fill="#A6CF59"/>
<path d="M16.9697 21.0448C17 22.104 17.0606 23.1632 17.1818 24.1921C17.1818 24.404 17.2425 24.6158 17.2425 24.8277C17.2425 25.0698 17.0909 25.2211 16.8485 25.2816C16.3031 25.3724 16.0606 25.2211 15.9394 24.6461C15.7879 23.95 15.7273 23.254 15.697 22.5579C15.6364 21.8921 15.6364 21.2264 15.6667 20.2579C15.6667 19.1079 15.697 17.6553 15.9091 16.2027C15.9697 15.8698 15.9697 15.5671 16.0909 15.2645C16.2121 14.7803 16.5758 14.629 17.0303 14.75C17.2425 14.8106 17.3637 14.9619 17.3334 15.204C17.2728 15.9 17.1515 16.5658 17.1212 17.2619C16.9697 18.5329 16.9091 19.804 16.9697 21.0448Z" fill="#9575B4"/>
<path d="M20.1818 24.7066C20.2424 25.1 20.0909 25.3421 19.7273 25.3421C19.2727 25.3724 18.9091 25.1 18.9091 24.7066C18.8788 23.375 18.9091 22.0737 18.9697 20.7421C19 20.5 19.0303 20.1974 19.1212 19.9553C19.303 19.4711 19.8788 19.35 20.1818 19.7434C20.2727 19.804 20.2727 19.925 20.2727 20.0461C20.2121 20.8027 20.1818 21.4987 20.1212 22.225C20.0909 23.0724 20.1515 23.8895 20.1818 24.7066Z" fill="#FAA71C"/>
<path d="M19.7879 18.3513C19.2121 18.3513 18.7576 17.8671 18.7576 17.2618C18.7273 16.6868 19.2424 16.2026 19.8182 16.2026C20.3333 16.2026 20.8485 16.7474 20.8485 17.3526C20.8485 17.9579 20.4545 18.3513 19.7879 18.3513Z" fill="#FAA71C"/>
<path d="M27.7273 23.8593C27.4243 24.5251 26.9091 24.9487 26.2424 25.1908C25.7576 25.3724 25.303 25.4027 25.0303 25.4027C23.394 25.4027 22.303 24.6461 21.9697 23.3751C21.5758 22.0132 22.1515 20.6514 23.4243 19.9553C24.6667 19.1987 26.1212 19.3803 27.1515 20.4093C27.2424 20.5001 27.3636 20.6211 27.4243 20.7422C27.6667 21.1053 27.5758 21.4382 27.1818 21.5895C27.0303 21.6501 26.9091 21.5895 26.7879 21.4987C26.6061 21.3474 26.4243 21.1658 26.2727 21.0145C25.5758 20.4395 24.5152 20.4698 23.7273 21.0751C23.0303 21.6198 22.8182 22.558 23.1818 23.4053C23.4546 24.0106 23.9394 24.283 24.5758 24.3737C24.9091 24.4343 25.2121 24.4343 25.5152 24.3737C26.0303 24.3132 26.4546 24.0408 26.7273 23.6172C26.7576 23.5566 26.7879 23.4658 26.8485 23.4053C27.0606 23.1027 27.2424 23.0422 27.5152 23.1935C27.7879 23.3145 27.8788 23.5566 27.7273 23.8593Z" fill="white"/>
<path d="M34.3939 25.2816C34.2121 25.2816 34.1212 25.1908 34.0303 25.0697C33.9394 24.8882 33.8788 24.7066 33.7879 24.5553C33.303 24.9487 32.7273 25.2513 32.0606 25.3421C29.8485 25.7053 28.2121 23.7684 28.9091 21.65C29.3636 20.2579 30.5151 19.471 32.1212 19.5316C32.5757 19.5618 33.0303 19.6526 33.4242 19.8645C33.5757 19.9553 33.7576 19.9855 33.9091 19.8645C33.9697 19.8039 34.0606 19.8039 34.1515 19.8039C34.5454 19.7434 34.6666 19.8645 34.6666 20.2579C34.6666 20.7421 34.6666 21.1658 34.6666 21.6197C34.6363 22.6184 34.7879 23.6171 35 24.5855C35.0909 24.9789 34.8485 25.2816 34.3939 25.2816Z" fill="white"/>
<path d="M41.2424 25.1908C40.8788 25.3118 40.7576 25.2513 40.6061 24.9184C40.5455 24.7671 40.5152 24.6158 40.4546 24.4645C40.303 24.5855 40.1212 24.7066 39.9697 24.8276C38.303 26.0079 36.1515 25.0395 35.9697 22.9816C35.9091 22.4368 35.9394 21.8921 36.1212 21.3474C36.4849 20.2276 37.303 19.6829 38.4243 19.5013C39.1212 19.4105 39.3333 19.4408 40 19.7132C40.0606 19.6526 40.0303 19.6224 40.0303 19.5618C39.9697 18.2303 40.0606 16.8987 40.1212 15.5671C40.1515 14.9618 40.394 14.7197 40.9394 14.7197C41.2121 14.6895 41.3333 14.7803 41.3333 15.0829C41.3333 15.3553 41.303 15.6579 41.2727 15.9303C41.0606 17.8974 41.0606 19.8342 41.1818 21.7711C41.2424 22.7395 41.394 23.6776 41.5758 24.5855C41.6061 24.9487 41.5455 25.1 41.2424 25.1908Z" fill="white"/>
<path d="M45.3031 25.4026C43.697 25.4934 42.4243 23.9803 42.4546 22.7395C42.4849 20.7724 43.697 19.4408 45.5758 19.4408C47.2424 19.4408 48.394 20.7421 48.394 22.5882C48.4243 23.9197 47.1515 25.5237 45.3031 25.4026Z" fill="white"/>
<path d="M32.7222 20.7055C32.3889 20.6147 32.0252 20.5845 31.6616 20.6147C30.4192 20.7055 29.601 21.7345 29.7828 22.945C29.8737 23.7924 30.8737 24.5187 31.7828 24.3976C32.9949 24.2463 33.6313 23.6108 33.6313 22.5213C33.6313 22.1582 33.601 21.8858 33.5404 21.5832C33.4192 21.1292 33.1768 20.8266 32.7222 20.7055Z" fill="#0D0E12"/>
<path d="M38.995 20.5845C38.6919 20.5542 38.3889 20.5542 38.0859 20.645C37.6313 20.7963 37.3283 21.0687 37.1162 21.4924C36.9344 21.8556 36.9041 22.249 36.9041 22.6727C36.9041 23.4595 37.4192 24.1253 38.1465 24.2463C38.995 24.3371 39.7828 23.8529 39.995 23.0661C40.0556 22.8542 40.0556 22.6424 40.0556 22.4306C40.0556 22.0371 40.0253 21.674 39.9041 21.3411C39.7525 20.9174 39.4495 20.645 38.995 20.5845Z" fill="#0D0E12"/>
<path d="M46.1768 20.645C44.8131 20.1306 43.4192 21.0385 43.4192 22.5213C43.4192 23.5806 44.2071 24.3977 45.2374 24.3977C46.4798 24.3977 47.2677 23.6411 47.2677 22.4306C47.2374 22.37 47.2374 22.249 47.2374 22.1582C47.1465 21.4924 46.8737 20.9174 46.1768 20.645Z" fill="#0D0E12"/>
</svg>

<svg width="58" height="40" fill="none" xmlns="http://www.w3.org/2000/svg"><rect x=".5" y=".5" width="57" height="39" rx="3.5" fill="#fff" stroke="#F1F1F1"/><path d="M32.788 20.682a3.087 3.087 0 0 0-1.06-.091c-1.243.09-2.061 1.12-1.88 2.33.091.847 1.091 1.574 2 1.453 1.213-.152 1.849-.787 1.849-1.877 0-.363-.03-.635-.09-.938-.122-.454-.365-.756-.82-.877Zm6.272-.122c-.302-.03-.605-.03-.909.061a1.585 1.585 0 0 0-.97.848c-.181.363-.211.756-.211 1.18 0 .787.515 1.452 1.242 1.573.849.091 1.636-.393 1.849-1.18.06-.212.06-.424.06-.635 0-.394-.03-.757-.151-1.09-.152-.424-.455-.696-.91-.756Zm7.182.061c-1.363-.514-2.757.394-2.757 1.876 0 1.06.788 1.877 1.818 1.877 1.242 0 2.03-.757 2.03-1.967-.03-.06-.03-.182-.03-.273-.09-.666-.364-1.24-1.06-1.513Z" fill="#0D0E12"/><path d="M53.727 18.805c-.363-2.512-1.485-4.66-3.303-6.416-2.182-2.057-4.757-3.147-7.757-3.147H15.12c-.454 0-.909.06-1.333.09-3 .485-5.424 1.877-7.273 4.268-1.545 1.997-2.333 4.267-2.333 6.779v11.076c0 .333-.06.303.303.303h38.122c1.879 0 3.697-.454 5.364-1.332 4-2.24 6.485-6.658 5.757-11.62Z" fill="#0D0E12"/><path d="M13.697 25.312c-.455.06-.727-.152-.848-.575-.213-.696-.243-1.423-.303-2.149-.061-.635-.061-1.24-.061-1.876 0-1.725.06-3.42.364-5.115.03-.151.06-.302.12-.454.152-.393.486-.544.91-.363.212.091.273.303.273.484 0 .364-.091.757-.122 1.09-.272 2.3-.272 4.57-.03 6.87.06.514.09 1.059.152 1.543.03.363-.122.515-.455.545Z" fill="#EF5CA0"/><path d="M10.818 20.56c0 1.453 0 2.906-.06 4.358a.56.56 0 0 1-.061.212c-.121.182-.545.242-.818.182-.212-.06-.303-.212-.303-.515V22.68a58.23 58.23 0 0 1-.06-2.542c0-.303.15-.484.454-.575.333-.06.636.03.757.272.091.242.121.454.091.727ZM10 18.351c-.636-.03-1.06-.454-1.06-.998.03-.606.515-1.15 1.06-1.15.606 0 1.06.484 1.06 1.059-.03.635-.454 1.09-1.06 1.09Z" fill="#A6CF59"/><path d="M16.97 21.045c.03 1.059.09 2.118.212 3.147 0 .212.06.424.06.636 0 .242-.151.393-.393.454-.546.09-.788-.06-.91-.636-.151-.696-.212-1.392-.242-2.088-.06-.666-.06-1.332-.03-2.3 0-1.15.03-2.603.242-4.055.06-.333.06-.636.182-.938.121-.485.485-.636.94-.515.212.06.333.212.302.454-.06.696-.181 1.362-.212 2.058-.151 1.27-.212 2.542-.151 3.783Z" fill="#9575B4"/><path d="M20.182 24.707c.06.393-.091.635-.455.635-.454.03-.818-.242-.818-.635-.03-1.332 0-2.633.06-3.965.031-.242.061-.545.152-.787.182-.484.758-.605 1.06-.212.092.061.092.182.092.303-.06.757-.091 1.453-.152 2.179-.03.847.03 1.665.06 2.482Zm-.394-6.356c-.576 0-1.03-.484-1.03-1.09-.03-.574.484-1.058 1.06-1.058.515 0 1.03.544 1.03 1.15 0 .605-.393.998-1.06.998Z" fill="#FAA71C"/><path d="M27.727 23.86c-.303.665-.818 1.089-1.485 1.33a3.49 3.49 0 0 1-1.212.213c-1.636 0-2.727-.757-3.06-2.028-.394-1.362.181-2.724 1.454-3.42 1.243-.756 2.697-.575 3.727.454.091.091.213.212.273.333.243.363.152.696-.242.848-.152.06-.273 0-.394-.091a8.12 8.12 0 0 1-.515-.484c-.697-.576-1.758-.545-2.546.06-.697.545-.909 1.483-.545 2.33.273.606.757.878 1.394.969.333.06.636.06.94 0 .514-.06.939-.333 1.211-.757.03-.06.06-.151.122-.212.212-.302.393-.363.666-.212.273.121.364.364.212.666Zm6.667 1.422c-.182 0-.273-.091-.364-.212-.09-.182-.151-.363-.242-.515-.485.394-1.06.696-1.727.787-2.212.363-3.849-1.574-3.152-3.692.455-1.392 1.606-2.179 3.212-2.118.455.03.91.12 1.303.332.152.091.334.121.485 0 .06-.06.152-.06.242-.06.394-.06.516.06.516.454v1.362c-.03.998.12 1.997.333 2.965.09.394-.151.697-.606.697Zm6.848-.092c-.363.122-.484.061-.636-.272-.06-.15-.09-.302-.151-.453-.152.12-.334.242-.485.363-1.667 1.18-3.819.212-4-1.846a3.79 3.79 0 0 1 .151-1.635c.364-1.12 1.182-1.664 2.303-1.846.697-.09.91-.06 1.576.212.06-.06.03-.09.03-.151-.06-1.332.03-2.663.091-3.995.03-.605.273-.847.818-.847.273-.03.394.06.394.363 0 .272-.03.575-.06.847-.212 1.967-.212 3.904-.091 5.841.06.968.212 1.907.394 2.814.03.364-.03.515-.334.606Zm4.061.213c-1.606.09-2.879-1.423-2.848-2.663.03-1.968 1.242-3.3 3.12-3.3 1.667 0 2.819 1.302 2.819 3.148.03 1.332-1.242 2.936-3.09 2.815Z" fill="#fff"/><path d="M32.722 20.706a3.062 3.062 0 0 0-1.06-.091c-1.243.09-2.061 1.12-1.88 2.33.092.847 1.092 1.574 2 1.453 1.213-.152 1.85-.787 1.85-1.877 0-.363-.031-.635-.092-.938-.12-.454-.363-.756-.818-.877Zm6.273-.122c-.303-.03-.606-.03-.91.061a1.584 1.584 0 0 0-.969.847c-.182.364-.212.757-.212 1.18 0 .787.515 1.453 1.242 1.574.849.091 1.637-.393 1.849-1.18.06-.212.06-.424.06-.635 0-.394-.03-.757-.15-1.09-.153-.424-.456-.696-.91-.757Zm7.182.061c-1.364-.514-2.758.393-2.758 1.876 0 1.06.788 1.877 1.818 1.877 1.243 0 2.03-.757 2.03-1.967-.03-.061-.03-.182-.03-.273-.09-.666-.363-1.24-1.06-1.513Z" fill="#0D0E12"/></svg>
